X:1
T:Tielman Susato (c.1510 - c.1570) Arr. Marieh 
T:Pour Quoy
T:Ronde No.1
T:Pour Quoy
T:Ronde No.1
T:Tielman Susato (c.1510 - c.1570) Arr. Marieh
%%score ( 1 2 )
L:1/8
Q:1/4=126
M:none
K:G
V:1 treble-8 nm="Guitare classique"
V:2 treble-8 
V:1
 A2 e2 e3 e | d2 e2 c2 A2 | d3 e dcBA | ^GF G2 A4 :: ABcd e2 e2 | g2 f2 e4 | ABcd e3 e | g2 f2 e4 | %8
 cBcd .e2 !>!e2 | cBcd .e2 !>!e2 | de=fe dcBA | ^GFAG A4 | cBcd .e2 !>!e2 | cBcd .e2 !>!e2 | %14
 de=fe dcBA | ^GFAG A4 :| %16
V:2
 A,4 A,4 | B,4 A,4 | D4 D4 | E,4 A,4 :: A,4 A,4 | A,4 A,4 | A,4 A,4 | A,4 A,4 | A,4 A,4 | A,4 A,4 | %10
 D4 A,4 | E,4 A,4 | A,4 A,4 | A,4 A,4 | D4 A,4 | E,4 A,4 :| %16

